X: 10301
T: Dolina MacKay
R: reel
M: 4/4
K: Aminor
|:AaaA g2Aa|Aaag e2dg|Ggge g2 de|gedB e2dB|
AaaA g2Aa|Aaag e2de|aeea e2dB|A2BG A4:|

